lib/flags/ca-canada.svg

<svg xmlns="http://www.w3.org/2000/svg" fill="none" aria-hidden="true" viewBox="0 0 42 30"><g id="Country=CA - Canada, Size=sm (36x24)" filter="url(#filter0_dd_91_29059)"><g clip-path="url(#clip0_91_29059)"><mask id="mask0_91_29059" width="36" height="24" x="3" y="2" maskUnits="userSpaceOnUse" style="mask-type:alpha"><rect id="mask" width="36" height="24" x="3" y="2" fill="white"/></mask><g mask="url(#mask0_91_29059)"><g id="contents"><path id="middle" fill="#F7FCFF" fill-rule="evenodd" d="M12 2H30V26H12V2Z" clip-rule="evenodd"/><path id="Shape" fill="#E31D1C" fill-rule="evenodd" d="M20.9735 9L21 21H20.3256L20.7394 18.0303C17.713 18.5144 16.3249 18.6343 16.5751 18.3902C16.8253 18.146 17.0224 17.8 17.1665 17.3521L13.125 14.9553C13.55 14.9506 13.9354 14.8568 14.2812 14.674C14.6269 14.4912 14.454 13.8578 13.7625 12.7737L15.803 13.0376L16.5751 12.2918L18.1146 13.7241H18.8066L18.1146 10.4434L19.355 11.0593L20.9735 9ZM20.9735 9L22.645 11.0593L23.8855 10.4434L23.1934 13.7241H23.8855L25.425 12.2918L26.197 13.0376L28.2375 12.7737C27.546 13.8578 27.3731 14.4912 27.7189 14.674C28.0646 14.8568 28.45 14.9506 28.875 14.9553L24.8335 17.3521C24.9776 17.8 25.1748 18.146 25.425 18.3902C25.6752 18.6343 24.2871 18.5144 21.2607 18.0303L21.6745 21H21L20.9735 9Z" clip-rule="evenodd"/><path id="right" fill="#E31D1C" fill-rule="evenodd" d="M30 2H39V26H30V2Z" clip-rule="evenodd"/><path id="right_2" fill="#E31D1C" fill-rule="evenodd" d="M3 2H12V26H3V2Z" clip-rule="evenodd"/></g></g></g></g><defs><filter id="filter0_dd_91_29059" width="42" height="30" x="0" y="0" color-interpolation-filters="sRGB" filterUnits="userSpaceOnUse"><feFlood flood-opacity="0" result="BackgroundImageFix"/><feColorMatrix in="SourceAlpha" result="hardAlpha" values="0 0 0 0 0 0 0 0 0 0 0 0 0 0 0 0 0 0 127 0"/><feOffset dy="1"/><feGaussianBlur stdDeviation="1"/><feColorMatrix values="0 0 0 0 0.0627451 0 0 0 0 0.0941176 0 0 0 0 0.156863 0 0 0 0.06 0"/><feBlend in2="BackgroundImageFix" result="effect1_dropShadow_91_29059"/><feColorMatrix in="SourceAlpha" result="hardAlpha" values="0 0 0 0 0 0 0 0 0 0 0 0 0 0 0 0 0 0 127 0"/><feOffset dy="1"/><feGaussianBlur stdDeviation="1.5"/><feColorMatrix values="0 0 0 0 0.0627451 0 0 0 0 0.0941176 0 0 0 0 0.156863 0 0 0 0.1 0"/><feBlend in2="effect1_dropShadow_91_29059" result="effect2_dropShadow_91_29059"/><feBlend in="SourceGraphic" in2="effect2_dropShadow_91_29059" result="shape"/></filter><clipPath id="clip0_91_29059"><rect width="36" height="24" x="3" y="2" fill="white" rx="2"/></clipPath></defs></svg>

<svg xmlns="http://www.w3.org/2000/svg" fill="none" aria-hidden="true" viewBox="0 0 42 30"><g filter="url(#a)"><g clip-path="url(#b)"><mask id="c" width="36" height="24" x="3" y="2" maskUnits="userSpaceOnUse" style="mask-type:alpha"><path fill="#fff" d="M3 2h36v24H3z"/></mask><g fill-rule="evenodd" clip-rule="evenodd" mask="url(#c)"><path fill="#F7FCFF" d="M12 2h18v24H12V2Z"/><path fill="#E31D1C" d="M20.974 9 21 21h-.674l.413-2.97c-3.026.484-4.414.604-4.164.36s.447-.59.591-1.038l-4.041-2.397c.425-.004.81-.098 1.156-.281.346-.183.173-.816-.519-1.9l2.041.264.772-.746 1.54 1.432h.692l-.692-3.28 1.24.615L20.974 9Zm0 0 1.671 2.06 1.24-.617-.692 3.281h.692l1.54-1.432.772.746 2.04-.264c-.691 1.084-.864 1.717-.518 1.9.346.183.731.277 1.156.281l-4.041 2.397c.144.448.34.794.591 1.038.25.244-1.138.124-4.164-.36l.413 2.97H21l-.026-12ZM30 2h9v24h-9V2ZM3 2h9v24H3V2Z"/></g></g></g><defs><clipPath id="b"><rect width="36" height="24" x="3" y="2" fill="#fff" rx="2"/></clipPath><filter id="a" width="42" height="30" x="0" y="0" color-interpolation-filters="sRGB" filterUnits="userSpaceOnUse"><feFlood flood-opacity="0" result="BackgroundImageFix"/><feColorMatrix in="SourceAlpha" result="hardAlpha" values="0 0 0 0 0 0 0 0 0 0 0 0 0 0 0 0 0 0 127 0"/><feOffset dy="1"/><feGaussianBlur stdDeviation="1"/><feColorMatrix values="0 0 0 0 0.0627451 0 0 0 0 0.0941176 0 0 0 0 0.156863 0 0 0 0.06 0"/><feBlend in2="BackgroundImageFix" result="effect1_dropShadow_91_29059"/><feColorMatrix in="SourceAlpha" result="hardAlpha" values="0 0 0 0 0 0 0 0 0 0 0 0 0 0 0 0 0 0 127 0"/><feOffset dy="1"/><feGaussianBlur stdDeviation="1.5"/><feColorMatrix values="0 0 0 0 0.0627451 0 0 0 0 0.0941176 0 0 0 0 0.156863 0 0 0 0.1 0"/><feBlend in2="effect1_dropShadow_91_29059" result="effect2_dropShadow_91_29059"/><feBlend in="SourceGraphic" in2="effect2_dropShadow_91_29059" result="shape"/></filter></defs></svg>
